images/themes/default/mIconArrangeSymbolsLeft.svg

<svg height="24" viewBox="0 0 6.35 6.35" width="24" xmlns="http://www.w3.org/2000/svg"><path d="m2.646 2.646h3.174v.529h-3.174zm0 1.852h1.904v.529h-1.904zm0-3.44h2.54v.53h-2.54z" fill="#555753" visibility="hidden"/><path d="m.641.641h1.364v1.099h-1.364zm0 1.852h1.364v1.099h-1.364zm0 1.852h1.364v1.099h-1.364z" fill="#848484" stroke="#5c5c5c" stroke-width=".224"/></svg>

<svg xmlns="http://www.w3.org/2000/svg" width="24" height="24" viewBox="0 0 6.35 6.35"><path style="marker:none" d="M2.646 2.646H5.82v.529H2.646zm0 1.852H4.55v.529H2.646zm0-3.44h2.54v.53h-2.54z" color="#555753" overflow="visible" fill="#555753" filter="url(#filter8750)"/><path fill="#848484" stroke="#5c5c5c" stroke-width=".224" d="M.641.641h1.364V1.74H.641zm0 1.852h1.364v1.099H.641zm0 1.852h1.364v1.099H.641z"/></svg>
